icon/pk/diamonds.svg

<svg width="48" height="48" fill="none" xmlns="http://www.w3.org/2000/svg"><path d="M12 8h24l8 10-20 24L4 18l8-10Z" fill="#2F88FF" stroke="#000" stroke-width="4" stroke-linecap="round" stroke-linejoin="round"/><path d="M4 18h40M24 42l-8-24M24 42l8-24" stroke="#fff" stroke-width="4" stroke-linecap="round" stroke-linejoin="round"/><path d="m8 13-4 5 20 24 20-24-4-5" stroke="#000" stroke-width="4" stroke-linecap="round" stroke-linejoin="round"/></svg>

<svg viewBox="0 0 48 48" fill="none" xmlns="http://www.w3.org/2000/svg" height="1em" width="1em">
  <path d="M12 8H36L44 18L24 42L4 18L12 8Z" fill="#2F88FF" stroke="black" stroke-width="4" stroke-linecap="round" stroke-linejoin="round"/>
  <path d="M4 18L44 18" stroke="white" stroke-width="4" stroke-linecap="round" stroke-linejoin="round"/>
  <path d="M24 42L16 18" stroke="white" stroke-width="4" stroke-linecap="round" stroke-linejoin="round"/>
  <path d="M24 42L32 18" stroke="white" stroke-width="4" stroke-linecap="round" stroke-linejoin="round"/>
  <path d="M8 13L4 18L24 42L44 18L40 13" stroke="black" stroke-width="4" stroke-linecap="round" stroke-linejoin="round"/>
</svg>
